app/assets/images/home-link.svg

<?xml version="1.0" encoding="utf-8"?>
<!-- Generator: Adobe Illustrator 16.0.0, SVG Export Plug-In . SVG Version: 6.00 Build 0)  -->
<!DOCTYPE svg PUBLIC "-//W3C//DTD SVG 1.1//EN" "http://www.w3.org/Graphics/SVG/1.1/DTD/svg11.dtd">
<svg version="1.1" id="Layer_1" xmlns="http://www.w3.org/2000/svg" xmlns:xlink="http://www.w3.org/1999/xlink" x="0px" y="0px"
	 width="212px" height="31px" viewBox="0 0 212 31" enable-background="new 0 0 212 31" xml:space="preserve">
<path fill="#FFFFFF" d="M0,7.612h1.678v3.106c1.118-1.8,2.696-3.51,5.802-3.51c3.041,0,4.905,1.743,5.869,3.759
	c1.126-1.95,3.008-3.759,6.287-3.759c4.128,0,6.683,2.901,6.683,7.266v10.555h-1.667V14.681c0-3.756-1.949-5.936-5.157-5.936
	c-2.942,0-5.498,2.252-5.498,6.141v10.144H12.32V14.581c0-3.614-1.98-5.836-5.087-5.836c-3.108,0-5.556,2.729-5.556,6.238v10.044H0
	V7.612z"/>
<path fill="#FFFFFF" d="M27.647,29.846l0.583-1.473c0.923,0.445,1.678,0.643,2.979,0.643c1.806,0,2.997-1.054,4.296-4.084
	l-8.358-17.32h1.939l7.235,15.576l6.284-15.576h1.843L36.91,25.646c-1.544,3.656-3.321,4.946-5.812,4.946
	C29.768,30.594,28.813,30.355,27.647,29.846z"/>
<path fill="#FFFFFF" d="M44.308,16.291v-0.074c0-4.981,3.896-9.215,9.044-9.215c3.351,0,5.432,1.399,7.076,3.143l-1.742,1.84
	c-1.397-1.471-2.977-2.662-5.368-2.662c-3.585,0-6.312,3.039-6.312,6.829v0.064c0,3.822,2.803,6.863,6.484,6.863
	c2.253,0,3.994-1.117,5.399-2.63l1.679,1.579c-1.785,1.979-3.896,3.41-7.217,3.41C48.204,25.439,44.308,21.24,44.308,16.291z"/>
<path fill="#FFFFFF" d="M62.845,0.107h2.63v10.34c1.158-1.916,3-3.445,6.041-3.445c4.273,0,6.757,2.869,6.757,7.071v10.954h-2.62
	V14.723c0-3.282-1.785-5.327-4.883-5.327c-3.041,0-5.294,2.218-5.294,5.523v10.108h-2.63L62.845,0.107L62.845,0.107z"/>
<path fill="#FFFFFF" d="M79.96,19.909v-0.067c0-3.798,3.065-5.769,7.538-5.769c2.259,0,3.832,0.302,5.402,0.747v-0.544
	c0-3.138-1.917-4.782-5.219-4.782c-2.082,0-3.726,0.51-5.362,1.265L81.53,8.606c1.948-0.89,3.822-1.496,6.428-1.496
	c2.483,0,4.438,0.674,5.696,1.938c1.225,1.227,1.843,2.937,1.843,5.188v10.793h-2.598v-2.631c-1.225,1.578-3.25,3.01-6.347,3.01
	C83.239,25.407,79.96,23.533,79.96,19.909z M92.939,18.543v-1.636c-1.299-0.386-3.019-0.755-5.162-0.755
	c-3.271,0-5.153,1.438-5.153,3.551v0.072c0,2.211,2.046,3.511,4.438,3.511C90.309,23.286,92.939,21.346,92.939,18.543z"/>
<path fill="#FFFFFF" d="M97.957,0.107h2.628v24.92h-2.628V0.107z"/>
<path fill="#FFFFFF" d="M111.749,23.146c2.422,0,4.132-0.985,5.563-2.489l1.644,1.471c-1.785,1.981-3.929,3.312-7.272,3.312
	c-4.852,0-8.812-3.724-8.812-9.223c0-5.111,3.583-9.215,8.466-9.215c5.227,0,8.229,4.168,8.229,9.355c0,0.238,0,0.509-0.035,0.918
	h-13.995C105.912,21.002,108.643,23.146,111.749,23.146z M116.911,15.164c-0.315-3.213-2.153-5.94-5.64-5.94
	c-3.041,0-5.359,2.529-5.736,5.94H116.911z"/>
<path fill="#FFFFFF" d="M122.361,20.352V9.698h-2.459V7.382h2.459V2.055h2.627v5.327h5.607v2.316h-5.607v10.31
	c0,2.152,1.203,2.936,2.979,2.936c0.88,0,1.634-0.166,2.554-0.61v2.253c-0.92,0.479-1.902,0.748-3.172,0.748
	C124.514,25.333,122.361,23.938,122.361,20.352z"/>
<path fill="#FFFFFF" d="M135.134,9.147h-2.532V7.612h2.532V5.91c0-1.981,0.541-3.553,1.529-4.547C137.559,0.477,138.781,0,140.32,0
	c1.052,0,1.809,0.14,2.598,0.411V1.98c-0.986-0.304-1.71-0.445-2.598-0.445c-2.394,0-3.521,1.44-3.521,4.406v1.671h6.077v1.535
	H136.8v15.88h-1.667L135.134,9.147L135.134,9.147z"/>
<rect x="144.668" y="7.612" fill="#FFFFFF" width="1.665" height="17.416"/>
<path fill="#FFFFFF" d="M148.343,7.612h1.679v3.254c1.168-2.054,3.105-3.658,6.279-3.658c4.407,0,6.971,3.009,6.971,7.167v10.652
	h-1.676V14.681c0-3.575-2.014-5.936-5.533-5.936c-3.41,0-6.041,2.59-6.041,6.207v10.075h-1.679V7.612z"/>
<path fill="#FFFFFF" d="M165.075,16.391v-0.065c0-5.672,4.265-9.116,8.469-9.116c3.474,0,5.735,1.974,7.163,4.16V0.107h1.679v24.92
	h-1.679v-3.887c-1.502,2.285-3.721,4.299-7.163,4.299C169.34,25.439,165.075,22.062,165.075,16.391z M180.809,16.357v-0.066
	c0-4.472-3.479-7.479-7.093-7.479c-3.79,0-6.832,2.762-6.832,7.446v0.065c0,4.569,3.183,7.512,6.832,7.512
	C177.33,23.836,180.809,20.796,180.809,16.357z"/>
<path fill="#FFFFFF" d="M184.118,16.357v-0.066c0-5.056,3.554-9.083,8.271-9.083c4.883,0,7.992,3.962,7.992,9.116
	c0,0.303,0,0.41-0.045,0.683h-14.441c0.312,4.339,3.42,6.854,6.832,6.854c2.695,0,4.545-1.185,5.975-2.721l1.16,1.02
	c-1.768,1.915-3.855,3.279-7.201,3.279C188.083,25.439,184.118,21.79,184.118,16.357z M198.564,15.502
	c-0.238-3.518-2.256-6.757-6.24-6.757c-3.461,0-6.117,2.902-6.43,6.757H198.564z"/>
<path fill="#FFFFFF" d="M202.523,7.612h1.67v4.956c1.363-3.108,4.271-5.36,7.717-5.221v1.834h-0.172
	c-4.027,0-7.545,3.039-7.545,8.713v7.133h-1.67V7.612z"/>
</svg>

<svg xmlns="http://www.w3.org/2000/svg" width="212" height="31" viewBox="0 0 212 31"><style>.a{fill:#606A70;}.b{fill:#005E9C;}</style><title>  home-link</title><desc>  Created with Sketch.</desc><g fill="none"><path d="M0 7.6L1.7 7.6 1.7 10.7C2.8 8.9 4.4 7.2 7.5 7.2 10.5 7.2 12.4 9 13.3 11 14.5 9 16.4 7.2 19.6 7.2 23.8 7.2 26.3 10.1 26.3 14.5L26.3 25 24.7 25 24.7 14.7C24.7 10.9 22.7 8.7 19.5 8.7 16.6 8.7 14 11 14 14.9L14 25 12.3 25 12.3 14.6C12.3 11 10.3 8.7 7.2 8.7 4.1 8.7 1.7 11.5 1.7 15L1.7 25 0 25 0 7.6Z" class="a"/><path d="M27.6 29.8L28.2 28.4C29.2 28.8 29.9 29 31.2 29 33 29 34.2 28 35.5 24.9L27.1 7.6 29.1 7.6 36.3 23.2 42.6 7.6 44.4 7.6 36.9 25.6C35.4 29.3 33.6 30.6 31.1 30.6 29.8 30.6 28.8 30.4 27.6 29.8Z" class="a"/><path d="M44.3 16.3L44.3 16.2C44.3 11.2 48.2 7 53.4 7 56.7 7 58.8 8.4 60.4 10.1L58.7 12C57.3 10.5 55.7 9.3 53.3 9.3 49.7 9.3 47 12.4 47 16.2L47 16.2C47 20 49.8 23.1 53.5 23.1 55.7 23.1 57.5 22 58.9 20.4L60.6 22C58.8 24 56.7 25.4 53.4 25.4 48.2 25.4 44.3 21.2 44.3 16.3Z" class="b"/><path d="M62.8 0.1L65.5 0.1 65.5 10.4C66.6 8.5 68.5 7 71.5 7 75.8 7 78.3 9.9 78.3 14.1L78.3 25 75.7 25 75.7 14.7C75.7 11.4 73.9 9.4 70.8 9.4 67.7 9.4 65.5 11.6 65.5 14.9L65.5 25 62.8 25 62.8 0.1Z" class="b"/><path d="M80 19.9L80 19.8C80 16 83 14.1 87.5 14.1 89.8 14.1 91.3 14.4 92.9 14.8L92.9 14.3C92.9 11.1 91 9.5 87.7 9.5 85.6 9.5 84 10 82.3 10.8L81.5 8.6C83.5 7.7 85.4 7.1 88 7.1 90.4 7.1 92.4 7.8 93.7 9 94.9 10.3 95.5 12 95.5 14.2L95.5 25 92.9 25 92.9 22.4C91.7 24 89.6 25.4 86.6 25.4 83.2 25.4 80 23.5 80 19.9ZM92.9 18.5L92.9 16.9C91.6 16.5 89.9 16.2 87.8 16.2 84.5 16.2 82.6 17.6 82.6 19.7L82.6 19.8C82.6 22 84.7 23.3 87.1 23.3 90.3 23.3 92.9 21.3 92.9 18.5Z" class="b"/><polygon points="98 0.1 100.6 0.1 100.6 25 98 25" class="b"/><path d="M111.7 23.1C114.2 23.1 115.9 22.2 117.3 20.7L119 22.1C117.2 24.1 115 25.4 111.7 25.4 106.8 25.4 102.9 21.7 102.9 16.2 102.9 11.1 106.5 7 111.3 7 116.6 7 119.6 11.2 119.6 16.4 119.6 16.6 119.6 16.9 119.5 17.3L105.5 17.3C105.9 21 108.6 23.1 111.7 23.1ZM116.9 15.2C116.6 12 114.8 9.2 111.3 9.2 108.2 9.2 105.9 11.8 105.5 15.2L116.9 15.2Z" class="b"/><path d="M122.4 20.4L122.4 9.7 119.9 9.7 119.9 7.4 122.4 7.4 122.4 2.1 125 2.1 125 7.4 130.6 7.4 130.6 9.7 125 9.7 125 20C125 22.2 126.2 22.9 128 22.9 128.8 22.9 129.6 22.8 130.5 22.3L130.5 24.6C129.6 25.1 128.6 25.3 127.3 25.3 124.5 25.3 122.4 23.9 122.4 20.4Z" class="b"/><path d="M135.1 9.1L132.6 9.1 132.6 7.6 135.1 7.6 135.1 5.9C135.1 3.9 135.7 2.4 136.7 1.4 137.6 0.5 138.8 0 140.3 0 141.4 0 142.1 0.1 142.9 0.4L142.9 2C141.9 1.7 141.2 1.5 140.3 1.5 137.9 1.5 136.8 3 136.8 5.9L136.8 7.6 142.9 7.6 142.9 9.1 136.8 9.1 136.8 25 135.1 25 135.1 9.1Z" class="a"/><rect x="144.7" y="7.6" width="1.7" height="17.4" class="a"/><path d="M148.3 7.6L150 7.6 150 10.9C151.2 8.8 153.1 7.2 156.3 7.2 160.7 7.2 163.3 10.2 163.3 14.4L163.3 25 161.6 25 161.6 14.7C161.6 11.1 159.6 8.7 156.1 8.7 152.7 8.7 150 11.3 150 15L150 25 148.3 25 148.3 7.6Z" class="a"/><path d="M165.1 16.4L165.1 16.3C165.1 10.7 169.3 7.2 173.5 7.2 177 7.2 179.3 9.2 180.7 11.4L180.7 0.1 182.4 0.1 182.4 25 180.7 25 180.7 21.1C179.2 23.4 177 25.4 173.5 25.4 169.3 25.4 165.1 22.1 165.1 16.4ZM180.8 16.4L180.8 16.3C180.8 11.8 177.3 8.8 173.7 8.8 169.9 8.8 166.9 11.6 166.9 16.3L166.9 16.3C166.9 20.9 170.1 23.8 173.7 23.8 177.3 23.8 180.8 20.8 180.8 16.4Z" class="a"/><path d="M184.1 16.4L184.1 16.3C184.1 11.2 187.7 7.2 192.4 7.2 197.3 7.2 200.4 11.2 200.4 16.3 200.4 16.6 200.4 16.7 200.3 17L185.9 17C186.2 21.3 189.3 23.9 192.7 23.9 195.4 23.9 197.3 22.7 198.7 21.1L199.9 22.2C198.1 24.1 196 25.4 192.7 25.4 188.1 25.4 184.1 21.8 184.1 16.4ZM198.6 15.5C198.3 12 196.3 8.7 192.3 8.7 188.9 8.7 186.2 11.6 185.9 15.5L198.6 15.5Z" class="a"/><path d="M202.5 7.6L204.2 7.6 204.2 12.6C205.6 9.5 208.5 7.2 211.9 7.3L211.9 9.2 211.7 9.2C207.7 9.2 204.2 12.2 204.2 17.9L204.2 25 202.5 25 202.5 7.6Z" class="a"/></g></svg>
